files/intel.svg

<svg clip-rule="evenodd" fill-rule="evenodd" stroke-linejoin="round" stroke-miterlimit="2" viewBox="0 0 560 400" xmlns="http://www.w3.org/2000/svg" xmlns:xlink="http://www.w3.org/1999/xlink"><clipPath id="a"><path clip-rule="evenodd" d="m0 0h1000v421.849h-1000z"/></clipPath><g clip-path="url(#a)" transform="matrix(.32 0 0 .32 120 132.50432)"><path d="m0 5.882h78.711v78.711h-78.711z" fill="#0068b5"/><path d="m32.1 151.6v-101.2h-26.6v101.2zm176.8 1v-24.8c-3.9 0-7.2-.2-9.6-.6-2.8-.4-4.9-1.4-6.3-2.8s-2.3-3.4-2.8-6c-.4-2.5-.6-5.8-.6-9.8v-35.4h19.3v-22.8h-19.3v-39.5h-26.7v97.9c0 8.3.7 15.3 2.1 20.9 1.4 5.5 3.8 10 7.1 13.4s7.7 5.8 13 7.3c5.4 1.5 12.2 2.2 20.3 2.2zm152.8-1v-148.5h-26.7v148.5zm-224.5-91.3c-7.4-8-17.8-12-31-12-6.4 0-12.2 1.3-17.5 3.9-5.2 2.6-9.7 6.2-13.2 10.8l-1.5 1.9v-14.5h-26.3v101.2h26.5v-53.9 3.7-1.8c.3-9.5 2.6-16.5 7-21 4.7-4.8 10.4-7.2 16.9-7.2 7.7 0 13.6 2.4 17.5 7 3.8 4.6 5.8 11.1 5.8 19.4v53.7h26.9v-57.4c.1-14.4-3.7-25.8-11.1-33.8zm184 40.5c0-7.3-1.3-14.1-3.8-20.5-2.6-6.3-6.2-11.9-10.7-16.7-4.6-4.8-10.1-8.5-16.5-11.2s-13.5-4-21.2-4c-7.3 0-14.2 1.4-20.6 4.1-6.4 2.8-12 6.5-16.7 11.2s-8.5 10.3-11.2 16.7c-2.8 6.4-4.1 13.3-4.1 20.6s1.3 14.2 3.9 20.6 6.3 12 10.9 16.7 10.3 8.5 16.9 11.2c6.6 2.8 13.9 4.2 21.7 4.2 22.6 0 36.6-10.3 45-19.9l-19.2-14.6c-4 4.8-13.6 11.3-25.6 11.3-7.5 0-13.7-1.7-18.4-5.2-4.7-3.4-7.9-8.2-9.6-14.1l-.3-.9h79.5zm-79.3-9.3c0-7.4 8.5-20.3 26.8-20.4 18.3 0 26.9 12.9 26.9 20.3z" fill-rule="nonzero" transform="matrix(2.80112 0 0 2.80112 -13.1653 -8.68347)"/></g></svg>

<?xml version="1.0" encoding="UTF-8" standalone="no"?>
<!DOCTYPE svg PUBLIC "-//W3C//DTD SVG 1.1//EN" "http://www.w3.org/Graphics/SVG/1.1/DTD/svg11.dtd">
<svg width="100%" height="100%" viewBox="0 0 560 400" version="1.1" xmlns="http://www.w3.org/2000/svg" xmlns:xlink="http://www.w3.org/1999/xlink" xml:space="preserve" xmlns:serif="http://www.serif.com/" style="fill-rule:evenodd;clip-rule:evenodd;stroke-linejoin:round;stroke-miterlimit:2;">
    <g transform="matrix(0.32,0,0,0.32,280,200)">
        <g transform="matrix(1,0,0,1,-500,-210.924)">
            <clipPath id="_clip1">
                <rect x="0" y="0" width="1000" height="421.849"/>
            </clipPath>
            <g clip-path="url(#_clip1)">
                <rect id="rect4" x="0" y="5.882" width="78.711" height="78.711" style="fill:rgb(0,104,181);"/>
                <g id="g10" transform="matrix(2.80112,0,0,2.80112,-13.1653,-8.68347)">
                    <path id="path6" d="M32.1,151.6L32.1,50.4L5.5,50.4L5.5,151.6L32.1,151.6ZM208.9,152.6L208.9,127.8C205,127.8 201.7,127.6 199.3,127.2C196.5,126.8 194.4,125.8 193,124.4C191.6,123 190.7,121 190.2,118.4C189.8,115.9 189.6,112.6 189.6,108.6L189.6,73.2L208.9,73.2L208.9,50.4L189.6,50.4L189.6,10.9L162.9,10.9L162.9,108.8C162.9,117.1 163.6,124.1 165,129.7C166.4,135.2 168.8,139.7 172.1,143.1C175.4,146.5 179.8,148.9 185.1,150.4C190.5,151.9 197.3,152.6 205.4,152.6L208.9,152.6ZM361.7,151.6L361.7,3.1L335,3.1L335,151.6L361.7,151.6ZM137.2,60.3C129.8,52.3 119.4,48.3 106.2,48.3C99.8,48.3 94,49.6 88.7,52.2C83.5,54.8 79,58.4 75.5,63L74,64.9L74,50.4L47.7,50.4L47.7,151.6L74.2,151.6L74.2,97.7L74.2,101.4L74.2,99.6C74.5,90.1 76.8,83.1 81.2,78.6C85.9,73.8 91.6,71.4 98.1,71.4C105.8,71.4 111.7,73.8 115.6,78.4C119.4,83 121.4,89.5 121.4,97.8L121.4,151.5L148.3,151.5L148.3,94.1C148.4,79.7 144.6,68.3 137.2,60.3ZM321.2,100.8C321.2,93.5 319.9,86.7 317.4,80.3C314.8,74 311.2,68.4 306.7,63.6C302.1,58.8 296.6,55.1 290.2,52.4C283.8,49.7 276.7,48.4 269,48.4C261.7,48.4 254.8,49.8 248.4,52.5C242,55.3 236.4,59 231.7,63.7C227,68.4 223.2,74 220.5,80.4C217.7,86.8 216.4,93.7 216.4,101C216.4,108.3 217.7,115.2 220.3,121.6C222.9,128 226.6,133.6 231.2,138.3C235.8,143 241.5,146.8 248.1,149.5C254.7,152.3 262,153.7 269.8,153.7C292.4,153.7 306.4,143.4 314.8,133.8L295.6,119.2C291.6,124 282,130.5 270,130.5C262.5,130.5 256.3,128.8 251.6,125.3C246.9,121.9 243.7,117.1 242,111.2L241.7,110.3L321.2,110.3L321.2,100.8ZM241.9,91.5C241.9,84.1 250.4,71.2 268.7,71.1C287,71.1 295.6,84 295.6,91.4L241.9,91.5Z" style="fill-rule:nonzero;"/>
                </g>
            </g>
        </g>
    </g>
</svg>
